assets/icons/qvision/control_camera.svg

<svg xmlns="http://www.w3.org/2000/svg" height="24" viewBox="0 0 24 24" width="24"><path d="M0 0h24v24H0z" fill="none"/><path d="M15.54 5.54L13.77 7.3 12 5.54 10.23 7.3 8.46 5.54 12 2zm2.92 10l-1.76-1.77L18.46 12l-1.76-1.77 1.76-1.77L22 12zm-10 2.92l1.77-1.76L12 18.46l1.77-1.76 1.77 1.76L12 22zm-2.92-10l1.76 1.77L5.54 12l1.76 1.77-1.76 1.77L2 12z"/><circle cx="12" cy="12" r="3"/></svg>

<svg width="24" height="24" viewBox="0 0 24 24" fill="none" xmlns="http://www.w3.org/2000/svg">
<g clip-path="url(#clip0_147_1403)">
<path d="M15.54 5.54L13.77 7.3L12 5.54L10.23 7.3L8.46 5.54L12 2L15.54 5.54ZM18.46 15.54L16.7 13.77L18.46 12L16.7 10.23L18.46 8.46L22 12L18.46 15.54ZM8.46 18.46L10.23 16.7L12 18.46L13.77 16.7L15.54 18.46L12 22L8.46 18.46ZM5.54 8.46L7.3 10.23L5.54 12L7.3 13.77L5.54 15.54L2 12L5.54 8.46Z" fill="#323232"/>
<path d="M12 15C13.6569 15 15 13.6569 15 12C15 10.3431 13.6569 9 12 9C10.3431 9 9 10.3431 9 12C9 13.6569 10.3431 15 12 15Z" fill="#323232"/>
</g>
<defs>
<clipPath id="clip0_147_1403">
<rect width="24" height="24" fill="white"/>
</clipPath>
</defs>
</svg>
